X:1
T:Title
%%score { ( 1 4 ) | ( 2 3 ) }
L:1/8
Q:1/4=100
M:6/8
K:Eb
V:1 treble nm="Grand Piano"
V:4 treble 
V:2 bass 
V:3 bass 
V:1
 BGG GFE | c3 B3 | cBG [GB]2 [EG] | [DF]6 | GGG GFE | c3 B3 | G[B,E][CEF] [B,EG]E[A,DF] | %7
w: A.~B.~Simpson * * * * *|||||||
 [G,B,E]6 |[M:9/8] [Ec]=Bc e3 c3 | [EGB][EG][G,B,E] [EG]3 F3 | G2 G G2 G GFE | c3 B6 | %12
w: |||||
 [Ge]2 [EAc] [EGB]3 [EG]3 | [DAB]2 c/d/ e6 | [GB]2 [Ac] [GB]2 [EG] [GB]GE | F3 E6 |] %16
w: ||||
V:2
 [E,G,E][E,B,E][E,B,E] [E,B,E][E,A,E][E,G,] | [E,A,E]3 [E,G,E]3 | %2
 [E,A,E][E,G,E][E,B,E] [E,B,]2 [E,B,] | [B,,B,]6 | z3 .B,3 | [A,E]3 [E,G,E]3 | %6
 [E,B,E]G,,A,, z G,B,, | E,6 |[M:9/8] z[K:treble] D[A,E] [A,A]3- [A,EA]3 | z B,E, z3 D3 | %10
 .[E,B,E]2 .[E,B,E] .[E,B,E]2 .[E,B,E] [E,B,E][E,A,E][E,G,] | [A,E]3 [E,G,E]6 | [E,B,]2 E, z3 B,3 | %13
 F,2 [F,B,F] [G,B,E]6 | [E,E]2 [E,E] [E,E]2 [E,B,] E[B,E][E,G,B,] | [B,,A,B,]3 [E,G,B,]6 |] %16
V:3
 x6 | x6 | x6 | x6 | [E,B,E][E,B,E][E,B,E] [E,E]-[E,A,E][E,G,] | x6 | z3 .B,,3 | x6 | %8
[M:9/8] .A,3[K:treble] C3 z3 | .E,3 B,,6 | x9 | x9 | z3 E,6 | x9 | z3 z3 .E,3 | x9 |] %16
V:4
 x6 | x6 | x6 | x6 | x6 | x6 | x6 | x6 |[M:9/8] x9 | z3 B,6 | x9 | x9 | x9 | x9 | x9 | x9 |] %16

